_inc/systems/logos/camplynx.svg

<?xml version="1.0" encoding="utf-8"?>
<svg viewBox="0 0 919 429.6" xmlns="http://www.w3.org/2000/svg">
  <path d="M 284.775 129.29 L 303.953 129.29 L 303.953 51.029 C 303.953 45.939 303.573 38.745 302.623 29.445 C 303.003 31.025 303.953 36.991 305.852 46.993 L 321.992 129.29 L 332.246 129.29 L 349.146 46.993 C 349.905 43.659 350.854 37.868 352.373 29.445 C 351.234 40.325 350.854 47.519 350.854 51.029 L 350.854 129.29 L 370.223 129.29 L 370.223 5.405 L 342.31 5.405 L 329.397 74.191 C 328.258 80.157 327.499 86.299 327.499 92.616 C 327.499 85.948 326.929 79.631 325.789 74.016 L 312.308 5.406 L 284.775 5.406 L 284.775 129.29 Z M 391.11 129.29 L 411.807 129.29 L 411.807 78.929 L 426.049 78.929 C 442.569 78.929 453.772 65.417 453.772 41.202 C 453.772 15.934 443.898 5.405 421.492 5.405 L 391.11 5.405 L 391.11 129.29 Z M 411.807 61.206 L 411.807 23.304 L 419.213 23.304 C 429.657 23.304 432.695 27.691 432.695 41.553 C 432.695 55.942 430.226 61.206 419.972 61.206 L 411.807 61.206 Z M 466.684 5.405 L 466.684 97.529 C 466.684 120.165 478.077 131.922 498.584 131.922 C 518.712 131.922 530.295 119.99 530.295 98.056 L 530.295 5.406 L 509.218 5.406 L 509.218 101.39 C 509.218 108.935 505.041 113.146 498.775 113.146 C 492.509 113.146 487.761 108.935 487.761 101.39 L 487.761 5.405 L 466.684 5.405 Z M 538.46 23.303 L 559.917 23.303 L 559.917 129.29 L 580.615 129.29 L 580.615 23.304 L 602.261 23.304 L 602.261 5.405 L 538.461 5.405 L 538.46 23.303 Z M 611.566 129.29 L 665.493 129.29 L 665.493 110.69 L 632.263 110.69 L 632.263 73.665 L 656.189 73.665 L 656.189 55.766 L 632.263 55.766 L 632.263 23.304 L 665.493 23.304 L 665.493 5.405 L 611.566 5.405 L 611.566 129.29 Z M 701.95 77.174 L 711.825 77.174 L 724.547 129.29 L 746.004 129.29 L 730.814 71.735 C 740.497 65.417 743.915 55.942 743.915 41.202 C 743.915 15.758 734.041 5.405 711.635 5.405 L 681.253 5.405 L 681.253 129.29 L 701.951 129.29 L 701.95 77.174 Z M 701.95 23.304 L 709.356 23.304 C 719.42 23.304 722.838 27.34 722.838 40.5 C 722.838 54.187 720.18 59.276 710.116 59.276 L 701.951 59.276 L 701.95 23.304 Z M 754.359 97.88 C 755.309 119.639 768.41 132.098 788.539 132.098 C 806.957 132.098 820.629 119.463 820.629 101.214 C 820.629 84.018 811.704 74.718 797.463 61.908 C 785.69 51.38 776.765 43.834 776.765 32.604 C 776.765 25.584 781.323 21.198 787.779 21.198 C 795.374 21.198 798.412 25.936 799.172 36.64 L 819.299 34.008 C 817.78 14.706 805.438 3.3 788.349 3.3 C 770.879 3.3 756.258 16.46 756.258 34.359 C 756.258 50.678 766.891 60.855 781.892 74.718 C 792.905 84.895 800.501 91.212 800.501 101.565 C 800.501 108.76 795.374 113.497 787.779 113.497 C 779.044 113.497 774.866 107.531 774.107 95.073 L 754.359 97.88 Z" fill-opacity=".994" stroke-width="3.1" fill="#fff"/>
  <path d="M 82.28 97.529 C 82.28 120.165 93.103 131.922 113.99 131.922 C 134.118 131.922 145.89 119.99 145.89 98.056 L 145.89 85.071 L 124.624 85.071 L 124.624 101.916 C 124.624 110.514 121.016 114.901 113.99 114.901 C 106.964 114.901 103.356 110.514 103.356 101.916 L 103.356 32.779 C 103.356 24.181 106.964 19.969 113.99 19.969 C 121.016 19.969 124.624 24.181 124.624 32.779 L 124.624 46.466 L 145.891 46.466 L 145.891 34.534 C 145.891 14.53 133.548 2.774 114.75 2.774 C 94.242 2.774 82.28 14.706 82.28 34.008 L 82.28 97.529 Z" fill-opacity=".994" stroke-width="3.1" fill="#fff"/>
  <path d="M 616.425 428.077 L 616.425 392.011 L 648.169 392.011 L 700.664 318.498 L 648.169 250.663 L 618.593 250.663 L 618.593 214.596 L 729.312 214.596 L 729.312 248.667 L 708.716 248.667 L 740.771 288.417 L 769.883 248.667 L 750.37 248.667 L 750.37 214.597 L 845.914 214.597 L 845.914 250.663 L 816.027 250.663 L 764.927 320.8 L 821.292 392.011 L 852.262 392.011 L 852.262 428.077 L 737.982 428.077 L 737.982 393.393 L 759.507 393.393 L 725.749 349.653 L 693.695 393.393 L 715.838 393.393 L 715.838 428.078 L 616.425 428.077 Z M 396.49 428.077 L 396.49 392.011 L 425.293 392.011 L 425.293 250.663 L 396.49 250.663 L 396.49 214.596 L 486.769 214.596 L 566.208 347.811 L 566.208 250.663 L 538.18 250.663 L 538.18 214.596 L 634.807 214.596 L 634.807 250.663 L 604.61 250.663 L 604.61 429.612 L 556.606 429.612 L 463.695 271.382 L 463.695 392.012 L 490.794 392.012 L 490.794 428.077 L 396.49 428.077 Z M 243.135 428.077 L 243.135 392.011 L 273.331 392.011 L 273.331 334.305 L 214.952 250.663 L 188.628 250.663 L 188.628 214.596 L 296.404 214.596 L 296.404 250.663 L 275.19 250.663 L 306.78 302.843 L 338.834 250.663 L 316.69 250.663 L 316.69 214.596 L 411.614 214.596 L 411.614 250.663 L 385.134 250.663 L 329.388 334.305 L 329.388 392.011 L 359.428 392.011 L 359.428 428.077 L 243.135 428.077 Z M 39.107 428.077 L 39.107 392.011 L 69.922 392.011 L 69.922 250.663 L 39.107 250.663 L 39.107 214.596 L 157.413 214.596 L 157.413 250.663 L 125.98 250.663 L 125.98 392.011 L 189.624 392.011 L 189.624 326.018 L 231.588 326.018 L 231.588 428.078 L 39.107 428.077 Z" fill-opacity=".994" fill="#fff"/>
  <path d="M 259.994 128.442 C 234.481 73.715 213.308 28.753 212.943 28.528 C 212.578 28.302 198.054 58.593 180.669 95.84 L 149.06 163.563 L 74.53 163.82 L 0 164.076 L 0 154.076 L 70.53 153.82 L 141.058 153.563 L 176.898 76.782 L 212.738 0 L 259.498 100.282 C 285.218 155.437 306.33 200.654 306.415 200.765 C 306.5 200.876 311.965 189.401 318.56 175.265 L 330.55 149.563 L 624.775 149.312 L 919 149.06 L 919 159.06 L 628.804 159.312 L 338.609 159.563 L 331.554 174.581 C 317.915 203.616 314.219 211.678 311.031 219.334 C 309.262 223.583 307.492 227.259 307.098 227.503 C 306.704 227.747 285.507 183.169 259.994 128.442 L 259.994 128.442 Z" fill="#fefefe"/>
</svg>

<?xml version="1.0" encoding="UTF-8" standalone="no"?><svg viewBox="0 0 919 429.6" version="1.1" id="svg2" xmlns="http://www.w3.org/2000/svg" xmlns:svg="http://www.w3.org/2000/svg"><path fill="currentColor" fill-opacity=".99" d="M284.77 129.29h19.18V51.03c0-5.1-.38-12.29-1.33-21.58.38 1.57 1.33 7.54 3.23 17.54L322 129.3h10.26l16.9-82.3c.75-3.33 1.7-9.12 3.22-17.55-1.14 10.89-1.52 18.08-1.52 21.59v78.26h19.37V5.41h-27.91L329.4 74.19a98 98 0 0 0-1.9 18.43c0-6.67-.57-12.99-1.71-18.6L312.3 5.4h-27.54zm106.34 0h20.7V78.93h14.24c16.52 0 27.72-13.51 27.72-37.73 0-25.27-9.87-35.8-32.28-35.8h-30.38zm20.7-68.08V23.3h7.4c10.45 0 13.49 4.38 13.49 18.24 0 14.4-2.47 19.66-12.73 19.66zm54.87-55.8v92.12c0 22.64 11.4 34.4 31.9 34.4 20.13 0 31.71-11.94 31.71-33.87V5.4h-21.07v95.98c0 7.55-4.18 11.76-10.45 11.76s-11-4.22-11-11.76V5.41zm71.78 17.9h21.46v105.98h20.7V23.3h21.64V5.4h-63.8zm73.1 105.98h53.93v-18.6h-33.23V73.67h23.93v-17.9h-23.93V23.3h33.23V5.4h-53.92zm90.39-52.12h9.88l12.72 52.12H746l-15.19-57.55c9.69-6.32 13.1-15.8 13.1-30.54 0-25.44-9.87-35.8-32.27-35.8h-30.39v123.9h20.7zm0-53.87h7.4c10.07 0 13.49 4.04 13.49 17.2 0 13.69-2.66 18.78-12.72 18.78h-8.17zm52.4 74.58c.96 21.76 14.06 34.22 34.19 34.22 18.42 0 32.09-12.64 32.09-30.89 0-17.2-8.93-26.5-23.17-39.3-11.77-10.53-20.7-18.08-20.7-29.3 0-7.03 4.56-11.41 11.02-11.41 7.6 0 10.63 4.74 11.4 15.44l20.12-2.63C817.78 14.7 805.44 3.3 788.35 3.3c-17.47 0-32.1 13.16-32.1 31.06 0 16.32 10.64 26.5 25.64 40.36 11.01 10.17 18.61 16.5 18.61 26.85 0 7.19-5.13 11.93-12.72 11.93-8.74 0-12.91-5.97-13.67-18.43zm-672.07-.35c0 22.64 10.82 34.4 31.71 34.4 20.13 0 31.9-11.94 31.9-33.87V85.07h-21.27v16.85c0 8.6-3.6 12.98-10.63 12.98s-10.63-4.39-10.63-12.98V32.78c0-8.6 3.6-12.81 10.63-12.81s10.63 4.21 10.63 12.8v13.7h21.27V34.53c0-20-12.34-31.76-31.14-31.76-20.5 0-32.47 11.94-32.47 31.24zm534.14 330.55V392h31.75l52.5-73.51-52.5-67.84h-29.58V214.6h110.72v34.07h-20.6l32.06 39.75 29.11-39.75h-19.51V214.6h95.54v36.06h-29.88l-51.1 70.14 56.36 71.21h30.97v36.07H737.98v-34.69h21.53l-33.76-43.74-32.05 43.74h22.14v34.69zm-219.93 0V392h28.8V250.66h-28.8V214.6h90.28l79.43 133.2v-97.15h-28.03V214.6h96.63v36.06h-30.2v178.95h-48l-92.92-158.23v120.63h27.1v36.07zm-153.36 0V392h30.2v-57.7l-58.38-83.65h-26.32V214.6H296.4v36.06h-21.2l31.59 52.18 32.05-52.18H316.7V214.6h94.92v36.06h-26.48l-55.74 83.65V392h30.04v36.07zm-204.02 0V392h30.81V250.66H39.11V214.6h118.3v36.06h-31.43v141.35h63.64v-66h41.97v102.07z" id="path1" style="fill:#ffffff"/><path fill="currentColor" d="M260 128.44c-25.52-54.72-46.7-99.69-47.06-99.91-.36-.23-14.89 30.06-32.27 67.31l-31.61 67.72-74.53.26-74.53.26v-10l70.53-.26 70.53-.26 35.84-76.78L212.74 0l46.76 100.28a57111 57111 0 0 0 46.92 100.48c.08.12 5.54-11.36 12.14-25.5l11.99-25.7 294.22-.25 294.23-.25v10l-290.2.25-290.2.25-7.05 15.02c-13.63 29.04-17.33 37.1-20.52 44.75-1.77 4.25-3.54 7.93-3.93 8.17s-21.6-44.33-47.1-99.06" id="path2" style="fill:#ffffff"/></svg>
